X:1
T:I Won't Go Hunting Wth You Jake
M:2/4
L:1/8
K:C
 G3/2 G/2| AG GG| AG GG| CC DE| E- D3-| D2 z G| BB BB| BB BA| GG AG|\
 G- E2 G| AG GG| AG GG| CC DE| E- D3-| D2 z G| BB BB| BB BA| GG AB|\
 c2 G3/2 G/2| AG GG| AG GG| CC DE| E D3-| D3 G| BB BB| BB BA| GG AG|\
 G E2 G| AG GG| AG GG| CC DE| E D3-| D3 G| BB BB| BB BA| G3 E| G3 E|\
 D C3-| C2||
